src/assets/images/stackoverflow_logo.svg

<svg clip-rule="evenodd" fill-rule="evenodd" stroke-linejoin="round" stroke-miterlimit="2" viewBox="0 0 32 32" xmlns="http://www.w3.org/2000/svg"><g fill-rule="nonzero" transform="matrix(.279952 0 0 .279952 3.40144 -.030199)"><path d="m63.277 73.175-43.425-10.532 2.107-8.685 43.425 10.532z" fill="#b58f52"/><path d="m66.188 62.785-39.79-20.332 4.066-7.959 39.791 20.333z" fill="#c78431"/><path d="m72.317 52.022-33.65-29.399 5.879-6.73 33.651 29.398z" fill="#e9812c"/><path d="m81.575 42.561-25.094-36.973 7.395-5.019 25.093 36.973z" fill="#e5712a"/><path d="m62.582 84.038-44.618-2.436.487-8.924 44.618 2.436z" fill="#9d8469"/><g fill="#797b7b"><path d="m71.833 105.059v-37.024h8.929l.006 45.962h-80.768l.002-46.001h8.937v37.063z"/><path d="m17.84 87.221h44.987v8.937h-44.987z"/></g></g></svg>

<?xml version="1.0" encoding="UTF-8" standalone="no"?>
<!DOCTYPE svg PUBLIC "-//W3C//DTD SVG 1.1//EN" "http://www.w3.org/Graphics/SVG/1.1/DTD/svg11.dtd">
<svg width="100%" height="100%" viewBox="0 0 32 32" version="1.1" xmlns="http://www.w3.org/2000/svg" xmlns:xlink="http://www.w3.org/1999/xlink" xml:space="preserve" xmlns:serif="http://www.serif.com/" style="fill-rule:evenodd;clip-rule:evenodd;stroke-linejoin:round;stroke-miterlimit:2;">
    <g transform="matrix(0.279952,0,0,0.279952,3.40144,-0.0301987)">
        <path d="M63.277,73.175L19.852,62.643L21.959,53.958L65.384,64.49L63.277,73.175" style="fill:rgb(181,143,82);fill-rule:nonzero;"/>
        <path d="M66.188,62.785L26.398,42.453L30.464,34.494L70.255,54.827L66.188,62.785" style="fill:rgb(199,132,49);fill-rule:nonzero;"/>
        <path d="M72.317,52.022L38.667,22.623L44.546,15.893L78.197,45.291L72.317,52.022" style="fill:rgb(233,129,44);fill-rule:nonzero;"/>
        <path d="M81.575,42.561L56.481,5.588L63.876,0.569L88.969,37.542L81.575,42.561" style="fill:rgb(229,113,42);fill-rule:nonzero;"/>
        <path d="M62.582,84.038L17.964,81.602L18.451,72.678L63.069,75.114L62.582,84.038" style="fill:rgb(157,132,105);fill-rule:nonzero;"/>
        <path d="M71.833,105.059L71.833,68.035L80.762,68.035L80.768,113.997L0,113.997L0.002,67.996L8.939,67.996L8.939,105.059L71.833,105.059" style="fill:rgb(121,123,123);fill-rule:nonzero;"/>
        <rect x="17.84" y="87.221" width="44.987" height="8.937" style="fill:rgb(121,123,123);fill-rule:nonzero;"/>
    </g>
</svg>
